; HEADER_BLOCK_START
; generated by Creality_Print V6.0.2.1574 on 2025-01-20 at 17:25:41
; total layer number: 80
; filament_density: 1.24
; filament_diameter: 1.75
; max_z_height: 16.00
; HEADER_BLOCK_END

; MINX = 74.40
; MINY = 84.40
; MINZ = 0.00
; MAXX = 145.60
; MAXY = 135.60
; MAXZ = 16.00

; THUMBNAIL_BLOCK_START

;
; THUMBNAIL_BLOCK_END

; THUMBNAIL_BLOCK_START

;
; THUMBNAIL_BLOCK_END

; external perimeters extrusion width = 0.42mm
; perimeters extrusion width = 0.45mm
; infill extrusion width = 0.45mm
; solid infill extrusion width = 0.42mm
; top infill extrusion width = 0.42mm
; first layer extrusion width = 0.50mm

; EXECUTABLE_BLOCK_START
M73 P0 R38
M201 X5000 Y5000 Z500 E5000
M203 X500 Y500 Z30 E100
M204 P5000 R2500 T5000 ; sets acceleration (P, T) and retract acceleration (R), mm/sec^2
M205 X10.00 Y10.00 Z0.40 E5.00 ; sets the jerk limits, mm/sec
;TYPE:Custom
M220 S100 ;Reset Feedrate 
M221 S100 ;Reset Flowrate 
 
M140 S50 ;Set final bed temp 
G28 ;Home 
 
G92 E0 ;Reset Extruder 
G1 Z2.0 F3000 ;Move Z Axis up 
M104 S190 ;Set final nozzle temp 
G1 X-2.1 Y20 Z0.28 F5000.0 ;Move to start position 
M190 S50 ;Wait for bed temp to stabilize 
M109 S190 ;Wait for nozzle temp to stabilize 
G1 X-2.1 Y145.0 Z0.28 F1500.0 E15 ;Draw the first line 
G1 X-2.4 Y145.0 Z0.28 F5000.0 ;Move to side a little 
G1 X-2.4 Y20 Z0.28 F1500.0 E30 ;Draw the second line 
G92 E0  ;Reset Extruder 
G1 E-1.0000 F1800 ;Retract a bit 
G1 Z2.0 F3000 ;Move Z Axis up 
G1 E0.0000 F1800
G90
G21
M83 ; use relative distances for extrusion
" "
G1 E-1.2 F2400
M106 S0
;LAYER_CHANGE
;Z:0.2
;HEIGHT:0.2
;BEFORE_LAYER_CHANGE
;0.2
G92 E0

;_SET_FAN_SPEED_CHANGING_LAYER
M204 P500
M205 X10 Y10
; printing object WifiRadio2_BoxTop.stl id:2483576497264 copy 0
M204 T500
G1 Z.2 F9000
G1 X75.257 Y134.243
G1 E1.2 F1800
;TYPE:Inner wall
;WIDTH:0.499999
G1 X75.257 Y85.257 E1.76868
G1 X144.743 Y85.257 E2.50885
G1 X144.743 Y134.743 E1.78673
G1 X75.257 Y134.743 E2.50885
G1 X75.257 Y134.283 E.01661
G1 E-1.2 F2400
;WIPE_START
G1 F9000
G1 X75.257 Y132.283
;WIPE_END
G1 X74.8 Y135.2 Z.4
G1 Z.2
G1 E1.2 F1800
;TYPE:Outer wall
G1 X74.8 Y84.8 E1.81974
G1 X145.2 Y84.8 E2.54186
G1 X145.2 Y135.2 E1.81974
M73 P1 R38
M73 P1 R38
G1 X74.84 Y135.2 E2.54042
G1 E-1.2 F2400
;WIPE_START
G1 F9000
G1 X74.838 Y133.2
;WIPE_END
G1 X78.509 Y132.156 Z.4
G1 X132.917 Y116.688 Z.4
G1 Z.2
M73 P1 R37
M73 P1 R37
G1 E1.2 F1800
;TYPE:Inner wall
G1 X133.373 Y117.244 E.02595
G1 X133.915 Y118.257 E.04149
G1 X134.249 Y119.357 E.04149
G1 X134.361 Y120.5 E.04149
G1 X134.249 Y121.643 E.04149
G1 X133.915 Y122.743 E.04149
G1 X133.405 Y123.697 E.03905
G1 X132.647 Y124.642 E.04375
G1 X131.756 Y125.373 E.04162
G1 X130.743 Y125.915 E.04149
G1 X129.643 Y126.249 E.04149
G1 X128.5 Y126.361 E.04149
G1 X127.357 Y126.249 E.04149
G1 X126.257 Y125.915 E.04149
G1 X125.244 Y125.373 E.04149
G1 X124.408 Y124.687 E.03905
G3 X123.663 Y123.801 I21.443 J-18.764 E.0418
G3 X123.065 Y122.678 I13.472 J-7.896 E.04593
G1 X122.771 Y121.708 E.03661
G3 X122.645 Y120.567 I24.825 J-3.31 E.04145
G3 X122.771 Y119.292 I15.397 J.873 E.04628
G1 X123.065 Y118.322 E.03661
G3 X123.595 Y117.303 I19.918 J9.708 E.04145
G3 X124.355 Y116.355 I22.987 J17.673 E.04388
G1 X125.191 Y115.669 E.03905
G3 X126.257 Y115.085 I14.667 J25.475 E.04388
G1 X127.357 Y114.751 E.04149
G1 X128.5 Y114.639 E.04149
G1 X129.643 Y114.751 E.04149
G1 X130.743 Y115.085 E.04149
G1 X131.756 Y115.627 E.04149
G1 X132.645 Y116.355 E.04149
G1 X132.892 Y116.657 E.01409
G1 X132.301 Y116.665 F9000
;TYPE:Outer wall
G1 F1800
G1 X132.32 Y116.68 E.0009
G1 X132.992 Y117.499 E.03823
G1 X133.491 Y118.433 E.03823
G1 X133.798 Y119.446 E.03823
G1 X133.902 Y120.5 E.03824
G1 X133.798 Y121.554 E.03823
G1 X133.491 Y122.567 E.03824
G1 X133.002 Y123.481 E.03742
G1 X132.32 Y124.319 E.03902
G1 X131.501 Y124.992 E.03825
G1 X130.567 Y125.491 E.03823
G1 X129.554 Y125.798 E.03824
G1 X128.5 Y125.902 E.03823
G1 X127.446 Y125.798 E.03823
G1 X126.433 Y125.491 E.03824
G1 X125.499 Y124.992 E.03823
G1 X124.698 Y124.334 E.03742
G3 X124.009 Y123.5 I41.606 J-35.058 E.03903
G3 X123.503 Y122.546 I39.128 J-21.373 E.03903
G1 X123.208 Y121.575 E.03661
G1 X123.098 Y120.501 E.03901
G1 X123.2 Y119.469 E.03744
G3 X123.52 Y118.413 I25.283 J7.093 E.03983
G1 X123.998 Y117.519 E.03661
G3 X124.68 Y116.68 I51.826 J41.485 E.03903
G1 X125.481 Y116.023 E.03742
G3 X126.433 Y115.509 I32.506 J59.087 E.03903
G1 X127.446 Y115.202 E.03823
G1 X128.5 Y115.098 E.03824
G1 X129.554 Y115.202 E.03823
G1 X130.567 Y115.509 E.03824
G1 X131.501 Y116.008 E.03823
G1 X132.27 Y116.639 E.0359
G1 E-1.2 F2400
;WIPE_START
G1 F9000
G1 X132.32 Y116.68
G1 X132.992 Y117.499
G1 X133.405 Y118.272
;WIPE_END
G1 X129.598 Y117.996 Z.4
G1 X115.024 Y116.943 Z.4
G1 Z.2
G1 E1.2 F1800
;TYPE:Inner wall
G1 X115.137 Y116.952 E.00409
G1 X115.817 Y117.144 E.02552
G1 X116.447 Y117.466 E.02552
G1 X116.941 Y117.854 E.0227
G1 X117.46 Y118.442 E.02829
G1 X117.805 Y119.058 E.02552
G1 X118.022 Y119.731 E.02552
G1 X118.105 Y120.433 E.02552
G1 X118.048 Y121.137 E.02552
G3 X117.096 Y123.001 I-3.747 J-.738 E.07655
G1 X116.558 Y123.46 E.02552
G1 X115.942 Y123.805 E.02552
G1 X115.269 Y124.022 E.02552
G1 X114.567 Y124.105 E.02552
G1 X113.863 Y124.048 E.02552
G1 X113.183 Y123.856 E.02552
G1 X112.553 Y123.534 E.02552
G1 X111.999 Y123.096 E.02552
G1 X111.54 Y122.558 E.02552
G1 X111.195 Y121.942 E.02552
G1 X110.978 Y121.269 E.02552
;WIDTH:0.540674
G1 X110.937 Y121.096 E.00701
;WIDTH:0.581348
G1 X110.896 Y120.922 E.00758
;WIDTH:0.622023
G1 X110.855 Y120.749 E.00815
;WIDTH:0.662697
G1 X110.814 Y120.575 E.00873
;WIDTH:0.668766
G3 X110.846 Y120.284 I.553 J-.086 E.01465
;WIDTH:0.626575
G1 X110.881 Y120.144 E.00667
;WIDTH:0.584383
G1 X110.917 Y120.003 E.00619
;WIDTH:0.542191
G1 X110.952 Y119.863 E.00571
;WIDTH:0.499999
G1 X111.144 Y119.183 E.02552
G1 X111.466 Y118.553 E.02552
G1 X111.904 Y117.999 E.02552
G1 X112.442 Y117.54 E.02552
G1 X113.058 Y117.195 E.02552
G1 X113.731 Y116.978 E.02552
G1 X114.433 Y116.895 E.02552
G1 X114.985 Y116.939 E.01998
G1 X114.492 Y117.352 F9000
;TYPE:Outer wall
G1 F1800
G1 X115.093 Y117.406 E.02178
G1 X115.685 Y117.581 E.02229
G1 X116.231 Y117.869 E.02229
G1 X116.651 Y118.207 E.01948
G1 X117.106 Y118.731 E.02507
G1 X117.401 Y119.274 E.02229
G1 X117.585 Y119.864 E.02229
G1 X117.65 Y120.478 E.02229
G1 X117.594 Y121.093 E.02229
G1 X117.452 Y121.575 E.01817
G1 X117.131 Y122.231 E.02635
G1 X116.743 Y122.711 E.02229
G1 X116.269 Y123.106 E.02229
G1 X115.726 Y123.401 E.02229
G1 X115.136 Y123.585 E.02229
G1 X114.522 Y123.65 E.02229
G1 X113.907 Y123.594 E.02229
G1 X113.315 Y123.419 E.02229
G1 X112.769 Y123.131 E.02229
G1 X112.289 Y122.743 E.02229
G1 X111.894 Y122.269 E.02229
G1 X111.599 Y121.726 E.02229
G1 X111.415 Y121.136 E.02229
G1 X111.35 Y120.522 E.02229
G1 X111.406 Y119.907 E.02229
G1 X111.581 Y119.315 E.02229
G1 X111.869 Y118.769 E.02229
G1 X112.257 Y118.289 E.02229
G1 X112.731 Y117.894 E.02229
G1 X113.274 Y117.599 E.02229
G1 X113.864 Y117.415 E.02229
G1 X114.452 Y117.353 E.02136
G1 E-1.2 F2400
;WIPE_START
G1 F9000
G1 X115.093 Y117.406
G1 X115.685 Y117.581
G1 X116.231 Y117.869
G1 X116.326 Y117.945
;WIPE_END
G1 X112.966 Y119.755 Z.4
G1 X105.292 Y123.887 Z.4
G1 Z.2
G1 E1.2 F1800
;TYPE:Inner wall
G1 X105.183 Y123.856 E.00409
G1 X104.553 Y123.534 E.02552
G1 X103.999 Y123.096 E.02552
G1 X103.54 Y122.558 E.02552
G1 X103.195 Y121.942 E.02552
G1 X102.978 Y121.269 E.02552
;WIDTH:0.540674
G1 X102.937 Y121.096 E.00701
;WIDTH:0.581348
G1 X102.896 Y120.922 E.00758
;WIDTH:0.622023
G1 X102.855 Y120.749 E.00815
;WIDTH:0.662697
G1 X102.814 Y120.575 E.00873
;WIDTH:0.668767
G3 X102.846 Y120.284 I.553 J-.086 E.01465
;WIDTH:0.626575
G1 X102.881 Y120.144 E.00667
;WIDTH:0.584383
G1 X102.917 Y120.003 E.00619
;WIDTH:0.542191
G1 X102.952 Y119.863 E.00571
;WIDTH:0.499999
G1 X103.144 Y119.183 E.02552
G1 X103.466 Y118.553 E.02552
G1 X103.904 Y117.999 E.02552
G1 X104.442 Y117.54 E.02552
G1 X105.058 Y117.196 E.02552
G1 X105.731 Y116.978 E.02552
G1 X106.433 Y116.895 E.02552
G1 X107.137 Y116.952 E.02552
G1 X107.817 Y117.144 E.02552
G1 X108.447 Y117.466 E.02552
G1 X109.001 Y117.904 E.02552
G1 X109.46 Y118.442 E.02552
G1 X109.805 Y119.058 E.02552
G1 X110.022 Y119.731 E.02552
;WIDTH:0.542191
G1 X110.064 Y119.904 E.00703
;WIDTH:0.584383
G1 X110.105 Y120.078 E.00763
;WIDTH:0.626575
G1 X110.147 Y120.251 E.00822
;WIDTH:0.668766
G3 X110.186 Y120.575 I-.601 J.236 E.01631
;WIDTH:0.662697
G1 X110.151 Y120.716 E.00708
;WIDTH:0.622023
G1 X110.117 Y120.856 E.00662
;WIDTH:0.581348
G1 X110.083 Y120.997 E.00615
;WIDTH:0.540674
G1 X110.048 Y121.137 E.00569
;WIDTH:0.499999
G1 X109.856 Y121.817 E.02552
G1 X109.534 Y122.447 E.02552
G1 X109.096 Y123.001 E.02552
G1 X108.558 Y123.46 E.02552
G1 X107.942 Y123.805 E.02552
G1 X107.269 Y124.022 E.02552
G1 X106.567 Y124.105 E.02552
G1 X105.863 Y124.048 E.02552
G1 X105.33 Y123.898 E.01998
G1 X105.894 Y123.59 F9000
;TYPE:Outer wall
G1 F1800
G1 X105.315 Y123.419 E.02178
G1 X104.769 Y123.131 E.02229
G1 X104.289 Y122.743 E.02229
G1 X103.894 Y122.269 E.02229
G1 X103.599 Y121.726 E.02229
G1 X103.415 Y121.136 E.02229
G1 X103.35 Y120.522 E.02229
G1 X103.406 Y119.907 E.02229
G1 X103.581 Y119.315 E.02229
G1 X103.869 Y118.769 E.02229
G1 X104.257 Y118.289 E.02229
G1 X104.731 Y117.894 E.02229
G1 X105.274 Y117.599 E.02229
G1 X105.864 Y117.415 E.0223
G1 X106.478 Y117.35 E.02229
G1 X107.093 Y117.406 E.02229
G1 X107.685 Y117.581 E.02229
G1 X108.231 Y117.869 E.02229
G1 X108.711 Y118.257 E.0223
G1 X109.106 Y118.731 E.02229
G1 X109.401 Y119.274 E.02229
G1 X109.585 Y119.864 E.02229
G1 X109.65 Y120.478 E.02229
G1 X109.594 Y121.093 E.02229
G1 X109.419 Y121.685 E.02229
G1 X109.131 Y122.231 E.02229
G1 X108.743 Y122.711 E.02229
G1 X108.269 Y123.106 E.02229
G1 X107.726 Y123.401 E.02229
G1 X107.136 Y123.585 E.02229
G1 X106.522 Y123.65 E.02229
G1 X105.933 Y123.596 E.02136
G1 E-1.2 F2400
;WIPE_START
G1 F9000
G1 X105.315 Y123.419
G1 X104.769 Y123.131
G1 X104.289 Y122.743
G1 X104.21 Y122.649
;WIPE_END
G1 X102.154 Y120.282 Z.4
G1 Z.2
G1 E1.2 F1800
;TYPE:Inner wall
;WIDTH:0.668767
G1 X102.189 Y120.425 E.00724
G3 X102.186 Y120.575 I-.643 J.062 E.00747
;WIDTH:0.662697
G1 X102.151 Y120.716 E.00708
;WIDTH:0.622023
G1 X102.117 Y120.856 E.00662
;WIDTH:0.581348
G1 X102.083 Y120.997 E.00615
;WIDTH:0.540674
G1 X102.048 Y121.137 E.00569
;WIDTH:0.499999
G1 X101.856 Y121.817 E.02552
G1 X101.534 Y122.447 E.02552
G1 X101.096 Y123.001 E.02552
G1 X100.558 Y123.46 E.02552
G1 X99.942 Y123.805 E.02552
G1 X99.269 Y124.022 E.02552
G1 X98.567 Y124.105 E.02552
G1 X97.863 Y124.048 E.02552
G1 X97.183 Y123.856 E.02552
G1 X96.553 Y123.534 E.02552
G1 X95.999 Y123.096 E.02552
G1 X95.54 Y122.558 E.02552
G1 X95.195 Y121.942 E.02552
G1 X94.978 Y121.269 E.02552
G1 X94.895 Y120.567 E.02552
G1 X94.952 Y119.863 E.02552
G1 X95.144 Y119.183 E.02552
G1 X95.466 Y118.553 E.02552
G1 X95.904 Y117.999 E.02552
G1 X96.442 Y117.54 E.02552
G1 X97.058 Y117.195 E.02552
G1 X97.731 Y116.978 E.02552
G1 X98.433 Y116.895 E.02552
G1 X99.137 Y116.952 E.02552
G1 X99.817 Y117.144 E.02552
G1 X100.447 Y117.466 E.02552
G1 X101.001 Y117.904 E.02552
G1 X101.46 Y118.442 E.02552
G1 X101.805 Y119.058 E.02552
G1 X102.022 Y119.731 E.02552
;WIDTH:0.542191
G1 X102.064 Y119.904 E.00703
;WIDTH:0.584383
G1 X102.105 Y120.078 E.00763
;WIDTH:0.626575
G1 X102.145 Y120.243 E.00785
G1 X101.586 Y119.878 F9000
;TYPE:Outer wall
;WIDTH:0.499999
G1 F1800
G1 X101.65 Y120.478 E.02178
G1 X101.594 Y121.093 E.02229
G1 X101.419 Y121.685 E.02229
G1 X101.131 Y122.231 E.02229
G1 X100.743 Y122.711 E.02229
G1 X100.269 Y123.106 E.02229
G1 X99.726 Y123.401 E.02229
G1 X99.136 Y123.585 E.02229
G1 X98.522 Y123.65 E.02229
G1 X97.907 Y123.594 E.02229
G1 X97.315 Y123.419 E.02229
G1 X96.769 Y123.131 E.02229
G1 X96.289 Y122.743 E.02229
G1 X95.894 Y122.269 E.02229
G1 X95.599 Y121.726 E.02229
G1 X95.415 Y121.136 E.02229
G1 X95.35 Y120.522 E.02229
G1 X95.406 Y119.907 E.02229
G1 X95.581 Y119.315 E.02229
G1 X95.869 Y118.769 E.02229
G1 X96.257 Y118.289 E.02229
G1 X96.731 Y117.894 E.02229
G1 X97.274 Y117.599 E.02229
G1 X97.864 Y117.415 E.02229
G1 X98.478 Y117.35 E.02229
G1 X99.093 Y117.406 E.02229
G1 X99.685 Y117.581 E.02229
G1 X100.231 Y117.869 E.02229
G1 X100.711 Y118.257 E.0223
G1 X101.106 Y118.731 E.02229
G1 X101.401 Y119.274 E.02229
G1 X101.577 Y119.839 E.02136
G1 E-1.2 F2400
;WIPE_START
G1 F9000
G1 X101.65 Y120.478
G1 X101.594 Y121.093
G1 X101.419 Y121.685
G1 X101.362 Y121.793
;WIPE_END
G1 Z.4
G1 X144.606 Y86.32
G1 Z.4
G1 Z.2
G1 E1.2 F1800
;TYPE:Bottom surface
;WIDTH:0.500857
G1 F4800
G1 X143.886 Y85.6 E.03684
G1 X143.238 Y85.6 E.02343
G1 X144.4 Y86.762 E.05945
G1 X144.4 Y87.41 E.02343
G1 X142.59 Y85.6 E.09258
G1 X141.943 Y85.6 E.02343
G1 X144.4 Y88.057 E.12571
G1 X144.4 Y88.705 E.02343
G1 X141.295 Y85.6 E.15884
G1 X140.648 Y85.6 E.02343
G1 X144.4 Y89.352 E.19197
G1 X144.4 Y90 E.02343
G1 X140 Y85.6 E.2251
G1 X139.352 Y85.6 E.02343
G1 X144.4 Y90.648 E.25823
G1 X144.4 Y91.295 E.02343
G1 X138.705 Y85.6 E.29136
G1 X138.057 Y85.6 E.02343
G1 X144.4 Y91.943 E.32449
G1 X144.4 Y92.591 E.02343
G1 X137.409 Y85.6 E.35762
G1 X136.762 Y85.6 E.02343
G1 X144.4 Y93.238 E.39075
G1 X144.4 Y93.886 E.02343
G1 X136.114 Y85.6 E.42388
G1 X135.467 Y85.6 E.02343
G1 X144.4 Y94.533 E.45701
G1 X144.4 Y95.181 E.02343
G1 X134.819 Y85.6 E.49014
G1 X134.171 Y85.6 E.02343
G1 X144.4 Y95.829 E.52328
G1 X144.4 Y96.476 E.02343
G1 X133.524 Y85.6 E.55641
G1 X132.876 Y85.6 E.02343
G1 X144.4 Y97.124 E.58954
G1 X144.4 Y97.771 E.02343
G1 X132.229 Y85.6 E.62267
G1 X131.581 Y85.6 E.02343
G1 X144.4 Y98.419 E.6558
G1 X144.4 Y99.067 E.02343
G1 X130.933 Y85.6 E.68893
G1 X130.286 Y85.6 E.02343
G1 X144.4 Y99.714 E.72206
G1 X144.4 Y100.362 E.02343
G1 X129.638 Y85.6 E.75519
G1 X128.99 Y85.6 E.02343
G1 X144.4 Y101.01 E.78832
G1 X144.4 Y101.657 E.02343
G1 X128.343 Y85.6 E.82145
G1 X127.695 Y85.6 E.02343
M73 P2 R37
M73 P2 R37
G1 X144.4 Y102.305 E.85458
G1 X144.4 Y102.952 E.02343
G1 X127.048 Y85.6 E.88771
G1 X126.4 Y85.6 E.02343
G1 X144.4 Y103.6 E.92084
G1 X144.4 Y104.248 E.02343
G1 X125.752 Y85.6 E.95397
G1 X125.105 Y85.6 E.02343
G1 X144.4 Y104.895 E.9871
G1 X144.4 Y105.543 E.02343
G1 X124.457 Y85.6 E1.02023
G1 X123.809 Y85.6 E.02343
G1 X144.4 Y106.191 E1.05336
G1 X144.4 Y106.838 E.02343
G1 X123.162 Y85.6 E1.0865
G1 X122.514 Y85.6 E.02343
G1 X144.4 Y107.486 E1.11963
G1 X144.4 Y108.133 E.02343
G1 X121.867 Y85.6 E1.15276
G1 X121.219 Y85.6 E.02343
G1 X144.4 Y108.781 E1.18589
G1 X144.4 Y109.429 E.02343
G1 X120.571 Y85.6 E1.21902
G1 X119.924 Y85.6 E.02343
G1 X144.4 Y110.076 E1.25215
G1 X144.4 Y110.724 E.02343
G1 X119.276 Y85.6 E1.28528
G1 X118.628 Y85.6 E.02343
G1 X144.4 Y111.372 E1.31841
G1 X144.4 Y112.019 E.02343
G1 X117.981 Y85.6 E1.35154
G1 X117.333 Y85.6 E.02343
G1 X144.4 Y112.667 E1.38467
G1 X144.4 Y113.314 E.02343
G1 X116.686 Y85.6 E1.4178
G1 X116.038 Y85.6 E.02343
G1 X144.4 Y113.962 E1.45093
G1 X144.4 Y114.61 E.02343
G1 X115.39 Y85.6 E1.48406
G1 X114.743 Y85.6 E.02343
G1 X144.4 Y115.257 E1.51719
G1 X144.4 Y115.905 E.02343
G1 X114.095 Y85.6 E1.55032
G1 X113.448 Y85.6 E.02343
G1 X144.4 Y116.552 E1.58345
G1 X144.4 Y117.2 E.02343
G1 X112.8 Y85.6 E1.61658
G1 X112.152 Y85.6 E.02343
G1 X144.4 Y117.848 E1.64972
G1 X144.4 Y118.495 E.02343
G1 X111.505 Y85.6 E1.68285
G1 X110.857 Y85.6 E.02343
G1 X144.4 Y119.143 E1.71598
G1 X144.4 Y119.791 E.02343
G1 X110.209 Y85.6 E1.74911
G1 X109.562 Y85.6 E.02343
G1 X144.4 Y120.438 E1.78224
G1 X144.4 Y121.086 E.02343
G1 X108.914 Y85.6 E1.81537
G1 X108.267 Y85.6 E.02343
G1 X144.4 Y121.733 E1.8485
G1 X144.4 Y122.381 E.02343
G1 X107.619 Y85.6 E1.88163
G1 X106.971 Y85.6 E.02343
G1 X144.4 Y123.029 E1.91476
G1 X144.4 Y123.676 E.02343
G1 X106.324 Y85.6 E1.94789
G1 X105.676 Y85.6 E.02343
G1 X144.4 Y124.324 E1.98102
G1 X144.4 Y124.972 E.02343
G1 X105.028 Y85.6 E2.01415
G1 X104.381 Y85.6 E.02343
M73 P3 R37
M73 P3 R37
G1 X144.4 Y125.619 E2.04728
G1 X144.4 Y126.267 E.02343
G1 X103.733 Y85.6 E2.08041
G1 X103.086 Y85.6 E.02343
G1 X144.4 Y126.914 E2.11354
G1 X144.4 Y127.562 E.02343
G1 X102.438 Y85.6 E2.14667
G1 X101.79 Y85.6 E.02343
G1 X131.07 Y114.879 E1.49785
G1 X131.943 Y115.342 E.03577
G1 X132.884 Y116.114 E.044
G1 X133.655 Y117.054 E.04399
