; HEADER_BLOCK_START
; generated by Creality_Print V6.0.2.1574 on 2025-01-20 at 17:26:53
; total layer number: 35
; filament_density: 1.24
; filament_diameter: 1.75
; max_z_height: 7.00
; HEADER_BLOCK_END

; MINX = 74.40
; MINY = 84.40
; MINZ = 0.00
; MAXX = 145.60
; MAXY = 135.60
; MAXZ = 7.00

; THUMBNAIL_BLOCK_START

;
; THUMBNAIL_BLOCK_END

; THUMBNAIL_BLOCK_START

;
; THUMBNAIL_BLOCK_END

; external perimeters extrusion width = 0.42mm
; perimeters extrusion width = 0.45mm
; infill extrusion width = 0.45mm
; solid infill extrusion width = 0.42mm
; top infill extrusion width = 0.42mm
; first layer extrusion width = 0.50mm

; EXECUTABLE_BLOCK_START
M73 P0 R18
M201 X5000 Y5000 Z500 E5000
M203 X500 Y500 Z30 E100
M204 P5000 R2500 T5000 ; sets acceleration (P, T) and retract acceleration (R), mm/sec^2
M205 X10.00 Y10.00 Z0.40 E5.00 ; sets the jerk limits, mm/sec
;TYPE:Custom
M220 S100 ;Reset Feedrate 
M221 S100 ;Reset Flowrate 
 
M140 S50 ;Set final bed temp 
G28 ;Home 
 
G92 E0 ;Reset Extruder 
G1 Z2.0 F3000 ;Move Z Axis up 
M104 S190 ;Set final nozzle temp 
G1 X-2.1 Y20 Z0.28 F5000.0 ;Move to start position 
M190 S50 ;Wait for bed temp to stabilize 
M109 S190 ;Wait for nozzle temp to stabilize 
G1 X-2.1 Y145.0 Z0.28 F1500.0 E15 ;Draw the first line 
G1 X-2.4 Y145.0 Z0.28 F5000.0 ;Move to side a little 
G1 X-2.4 Y20 Z0.28 F1500.0 E30 ;Draw the second line 
G92 E0  ;Reset Extruder 
G1 E-1.0000 F1800 ;Retract a bit 
G1 Z2.0 F3000 ;Move Z Axis up 
G1 E0.0000 F1800
G90
G21
M83 ; use relative distances for extrusion
" "
G1 E-1.2 F2400
M106 S0
;LAYER_CHANGE
;Z:0.2
;HEIGHT:0.2
;BEFORE_LAYER_CHANGE
;0.2
G92 E0

;_SET_FAN_SPEED_CHANGING_LAYER
M204 P500
M205 X10 Y10
; printing object WifiRadio2_BoxBottom.stl id:0 copy 0
M204 T500
G1 Z.2 F9000
G1 X144.243 Y134.743
G1 E1.2 F1800
M73 P1 R18
;TYPE:Inner wall
;WIDTH:0.499999
M73 P1 R18
G1 X75.257 Y134.743 E2.4908
G1 X75.257 Y85.257 E1.78673
G1 X144.743 Y85.257 E2.50885
G1 X144.743 Y134.743 E1.78673
G1 X144.283 Y134.743 E.01661
M73 P1 R17
M73 P1 R17
G1 E-1.2 F2400
;WIPE_START
G1 F9000
G1 X142.283 Y134.743
;WIPE_END
G1 X145.2 Y135.2 Z.4
G1 Z.2
G1 E1.2 F1800
;TYPE:Outer wall
G1 X74.8 Y135.2 E2.54186
G1 X74.8 Y84.8 E1.81974
M73 P2 R17
M73 P2 R17
G1 X145.2 Y84.8 E2.54186
G1 X145.2 Y135.16 E1.8183
G1 E-1.2 F2400
;WIPE_START
G1 F9000
G1 X143.2 Y135.161
;WIPE_END
G1 Z.4
G1 X144.606 Y86.32
G1 Z.4
G1 Z.2
G1 E1.2 F1800
;TYPE:Bottom surface
;WIDTH:0.500857
G1 F4800
G1 X143.886 Y85.6 E.03684
G1 X143.238 Y85.6 E.02343
G1 X144.4 Y86.762 E.05945
G1 X144.4 Y87.41 E.02343
G1 X142.59 Y85.6 E.09258
G1 X141.943 Y85.6 E.02343
G1 X144.4 Y88.057 E.12571
G1 X144.4 Y88.705 E.02343
G1 X141.295 Y85.6 E.15884
G1 X140.648 Y85.6 E.02343
G1 X144.4 Y89.352 E.19197
G1 X144.4 Y90 E.02343
G1 X140 Y85.6 E.2251
G1 X139.352 Y85.6 E.02343
G1 X144.4 Y90.648 E.25823
G1 X144.4 Y91.295 E.02343
G1 X138.705 Y85.6 E.29136
G1 X138.057 Y85.6 E.02343
G1 X144.4 Y91.943 E.32449
G1 X144.4 Y92.591 E.02343
G1 X137.409 Y85.6 E.35762
G1 X136.762 Y85.6 E.02343
G1 X144.4 Y93.238 E.39075
G1 X144.4 Y93.886 E.02343
G1 X136.114 Y85.6 E.42388
G1 X135.467 Y85.6 E.02343
G1 X144.4 Y94.533 E.45701
G1 X144.4 Y95.181 E.02343
G1 X134.819 Y85.6 E.49014
G1 X134.171 Y85.6 E.02343
M73 P3 R17
M73 P3 R17
G1 X144.4 Y95.829 E.52328
G1 X144.4 Y96.476 E.02343
G1 X133.524 Y85.6 E.55641
G1 X132.876 Y85.6 E.02343
G1 X144.4 Y97.124 E.58954
G1 X144.4 Y97.771 E.02343
G1 X132.229 Y85.6 E.62267
G1 X131.581 Y85.6 E.02343
G1 X144.4 Y98.419 E.6558
G1 X144.4 Y99.067 E.02343
G1 X130.933 Y85.6 E.68893
G1 X130.286 Y85.6 E.02343
G1 X144.4 Y99.714 E.72206
G1 X144.4 Y100.362 E.02343
G1 X129.638 Y85.6 E.75519
G1 X128.99 Y85.6 E.02343
G1 X144.4 Y101.01 E.78832
G1 X144.4 Y101.657 E.02343
G1 X128.343 Y85.6 E.82145
G1 X127.695 Y85.6 E.02343
G1 X144.4 Y102.305 E.85458
G1 X144.4 Y102.952 E.02343
G1 X127.048 Y85.6 E.88771
G1 X126.4 Y85.6 E.02343
G1 X144.4 Y103.6 E.92084
G1 X144.4 Y104.248 E.02343
G1 X125.752 Y85.6 E.95397
G1 X125.105 Y85.6 E.02343
G1 X144.4 Y104.895 E.9871
G1 X144.4 Y105.543 E.02343
G1 X124.457 Y85.6 E1.02023
G1 X123.809 Y85.6 E.02343
G1 X144.4 Y106.191 E1.05336
G1 X144.4 Y106.838 E.02343
G1 X123.162 Y85.6 E1.0865
G1 X122.514 Y85.6 E.02343
G1 X144.4 Y107.486 E1.11963
G1 X144.4 Y108.133 E.02343
G1 X121.867 Y85.6 E1.15276
G1 X121.219 Y85.6 E.02343
G1 X144.4 Y108.781 E1.18589
G1 X144.4 Y109.429 E.02343
G1 X120.571 Y85.6 E1.21902
G1 X119.924 Y85.6 E.02343
G1 X144.4 Y110.076 E1.25215
G1 X144.4 Y110.724 E.02343
G1 X119.276 Y85.6 E1.28528
G1 X118.628 Y85.6 E.02343
M73 P4 R17
M73 P4 R17
G1 X144.4 Y111.372 E1.31841
G1 X144.4 Y112.019 E.02343
G1 X117.981 Y85.6 E1.35154
G1 X117.333 Y85.6 E.02343
G1 X144.4 Y112.667 E1.38467
G1 X144.4 Y113.314 E.02343
G1 X116.686 Y85.6 E1.4178
G1 X116.038 Y85.6 E.02343
G1 X144.4 Y113.962 E1.45093
G1 X144.4 Y114.61 E.02343
G1 X115.39 Y85.6 E1.48406
G1 X114.743 Y85.6 E.02343
G1 X144.4 Y115.257 E1.51719
G1 X144.4 Y115.905 E.02343
G1 X114.095 Y85.6 E1.55032
G1 X113.448 Y85.6 E.02343
G1 X144.4 Y116.552 E1.58345
G1 X144.4 Y117.2 E.02343
G1 X112.8 Y85.6 E1.61658
G1 X112.152 Y85.6 E.02343
G1 X144.4 Y117.848 E1.64972
G1 X144.4 Y118.495 E.02343
G1 X111.505 Y85.6 E1.68285
G1 X110.857 Y85.6 E.02343
G1 X144.4 Y119.143 E1.71598
G1 X144.4 Y119.791 E.02343
G1 X110.209 Y85.6 E1.74911
G1 X109.562 Y85.6 E.02343
G1 X144.4 Y120.438 E1.78224
G1 X144.4 Y121.086 E.02343
G1 X108.914 Y85.6 E1.81537
G1 X108.267 Y85.6 E.02343
M73 P5 R17
M73 P5 R17
G1 X144.4 Y121.733 E1.8485
G1 X144.4 Y122.381 E.02343
G1 X107.619 Y85.6 E1.88163
G1 X106.971 Y85.6 E.02343
G1 X144.4 Y123.029 E1.91476
G1 X144.4 Y123.676 E.02343
G1 X106.324 Y85.6 E1.94789
G1 X105.676 Y85.6 E.02343
G1 X144.4 Y124.324 E1.98102
G1 X144.4 Y124.972 E.02343
G1 X105.028 Y85.6 E2.01415
G1 X104.381 Y85.6 E.02343
G1 X144.4 Y125.619 E2.04728
G1 X144.4 Y126.267 E.02343
G1 X103.733 Y85.6 E2.08041
G1 X103.086 Y85.6 E.02343
G1 X144.4 Y126.914 E2.11354
G1 X144.4 Y127.562 E.02343
G1 X102.438 Y85.6 E2.14667
G1 X101.79 Y85.6 E.02343
G1 X144.4 Y128.21 E2.1798
G1 X144.4 Y128.857 E.02343
G1 X101.143 Y85.6 E2.21294
G1 X100.495 Y85.6 E.02343
G1 X144.4 Y129.505 E2.24607
G1 X144.4 Y130.153 E.02343
M73 P6 R17
M73 P6 R17
G1 X99.847 Y85.6 E2.2792
G1 X99.2 Y85.6 E.02343
G1 X144.4 Y130.8 E2.31233
G1 X144.4 Y131.448 E.02343
G1 X98.552 Y85.6 E2.34546
G1 X97.905 Y85.6 E.02343
G1 X144.4 Y132.095 E2.37859
G1 X144.4 Y132.743 E.02343
G1 X97.257 Y85.6 E2.41172
G1 X96.609 Y85.6 E.02343
G1 X144.4 Y133.391 E2.44485
G1 X144.4 Y134.038 E.02343
G1 X95.962 Y85.6 E2.47798
G1 X95.314 Y85.6 E.02343
G1 X144.114 Y134.4 E2.49649
G1 X143.467 Y134.4 E.02343
G1 X94.667 Y85.6 E2.49649
G1 X94.019 Y85.6 E.02343
G1 X142.819 Y134.4 E2.49649
G1 X142.172 Y134.4 E.02343
G1 X93.371 Y85.6 E2.49649
G1 X92.724 Y85.6 E.02343
M73 P7 R17
M73 P7 R17
G1 X141.524 Y134.4 E2.49649
G1 X140.876 Y134.4 E.02343
G1 X92.076 Y85.6 E2.49649
G1 X91.428 Y85.6 E.02343
M73 P7 R16
M73 P7 R16
G1 X140.229 Y134.4 E2.49649
G1 X139.581 Y134.4 E.02343
G1 X90.781 Y85.6 E2.49649
G1 X90.133 Y85.6 E.02343
G1 X138.933 Y134.4 E2.49649
G1 X138.286 Y134.4 E.02343
G1 X89.486 Y85.6 E2.49649
G1 X88.838 Y85.6 E.02343
G1 X137.638 Y134.4 E2.49649
G1 X136.991 Y134.4 E.02343
G1 X88.19 Y85.6 E2.49649
G1 X87.543 Y85.6 E.02343
G1 X136.343 Y134.4 E2.49649
G1 X135.695 Y134.4 E.02343
G1 X86.895 Y85.6 E2.49649
G1 X86.247 Y85.6 E.02343
G1 X135.048 Y134.4 E2.49649
G1 X134.4 Y134.4 E.02343
M73 P8 R16
M73 P8 R16
G1 X85.6 Y85.6 E2.49649
G1 X84.952 Y85.6 E.02343
G1 X133.752 Y134.4 E2.49649
G1 X133.105 Y134.4 E.02343
G1 X84.305 Y85.6 E2.49649
G1 X83.657 Y85.6 E.02343
G1 X132.457 Y134.4 E2.49649
G1 X131.81 Y134.4 E.02343
G1 X83.009 Y85.6 E2.49649
G1 X82.362 Y85.6 E.02343
G1 X131.162 Y134.4 E2.49649
G1 X130.514 Y134.4 E.02343
G1 X81.714 Y85.6 E2.49649
G1 X81.066 Y85.6 E.02343
G1 X129.867 Y134.4 E2.49649
G1 X129.219 Y134.4 E.02343
G1 X80.419 Y85.6 E2.49649
G1 X79.771 Y85.6 E.02343
G1 X128.571 Y134.4 E2.49649
G1 X127.924 Y134.4 E.02343
G1 X79.124 Y85.6 E2.49649
M73 P9 R16
M73 P9 R16
G1 X78.476 Y85.6 E.02343
G1 X127.276 Y134.4 E2.49649
G1 X126.629 Y134.4 E.02343
G1 X77.828 Y85.6 E2.49649
G1 X77.181 Y85.6 E.02343
G1 X125.981 Y134.4 E2.49649
G1 X125.333 Y134.4 E.02343
G1 X76.533 Y85.6 E2.49649
G1 X75.886 Y85.6 E.02343
G1 X124.686 Y134.4 E2.49649
G1 X124.038 Y134.4 E.02343
G1 X75.6 Y85.962 E2.47797
G1 X75.6 Y86.609 E.02343
G1 X123.391 Y134.4 E2.44484
G1 X122.743 Y134.4 E.02343
G1 X75.6 Y87.257 E2.41171
G1 X75.6 Y87.905 E.02343
G1 X122.095 Y134.4 E2.37858
G1 X121.448 Y134.4 E.02343
G1 X75.6 Y88.552 E2.34545
G1 X75.6 Y89.2 E.02343
M73 P10 R16
M73 P10 R16
G1 X120.8 Y134.4 E2.31232
G1 X120.152 Y134.4 E.02343
G1 X75.6 Y89.848 E2.27919
G1 X75.6 Y90.495 E.02343
G1 X119.505 Y134.4 E2.24606
G1 X118.857 Y134.4 E.02343
G1 X75.6 Y91.143 E2.21293
G1 X75.6 Y91.79 E.02343
G1 X118.21 Y134.4 E2.1798
G1 X117.562 Y134.4 E.02343
G1 X75.6 Y92.438 E2.14667
G1 X75.6 Y93.086 E.02343
G1 X116.914 Y134.4 E2.11354
G1 X116.267 Y134.4 E.02343
G1 X75.6 Y93.733 E2.08041
G1 X75.6 Y94.381 E.02343
G1 X115.619 Y134.4 E2.04728
G1 X114.971 Y134.4 E.02343
G1 X75.6 Y95.029 E2.01415
G1 X75.6 Y95.676 E.02343
G1 X114.324 Y134.4 E1.98102
G1 X113.676 Y134.4 E.02343
G1 X75.6 Y96.324 E1.94788
G1 X75.6 Y96.971 E.02343
G1 X113.029 Y134.4 E1.91475
G1 X112.381 Y134.4 E.02343
M73 P11 R16
M73 P11 R16
G1 X75.6 Y97.619 E1.88162
G1 X75.6 Y98.267 E.02343
G1 X111.733 Y134.4 E1.84849
G1 X111.086 Y134.4 E.02343
G1 X75.6 Y98.914 E1.81536
G1 X75.6 Y99.562 E.02343
G1 X110.438 Y134.4 E1.78223
G1 X109.79 Y134.4 E.02343
G1 X75.6 Y100.21 E1.7491
G1 X75.6 Y100.857 E.02343
G1 X109.143 Y134.4 E1.71597
G1 X108.495 Y134.4 E.02343
G1 X75.6 Y101.505 E1.68284
G1 X75.6 Y102.152 E.02343
G1 X107.848 Y134.4 E1.64971
G1 X107.2 Y134.4 E.02343
G1 X75.6 Y102.8 E1.61658
G1 X75.6 Y103.448 E.02343
G1 X106.552 Y134.4 E1.58345
G1 X105.905 Y134.4 E.02343
G1 X75.6 Y104.095 E1.55032
G1 X75.6 Y104.743 E.02343
G1 X105.257 Y134.4 E1.51719
G1 X104.61 Y134.4 E.02343
G1 X75.6 Y105.39 E1.48406
G1 X75.6 Y106.038 E.02343
G1 X103.962 Y134.4 E1.45093
G1 X103.314 Y134.4 E.02343
G1 X75.6 Y106.686 E1.4178
G1 X75.6 Y107.333 E.02343
M73 P12 R16
M73 P12 R16
G1 X102.667 Y134.4 E1.38466
G1 X102.019 Y134.4 E.02343
G1 X75.6 Y107.981 E1.35153
G1 X75.6 Y108.629 E.02343
G1 X101.371 Y134.4 E1.3184
G1 X100.724 Y134.4 E.02343
G1 X75.6 Y109.276 E1.28527
G1 X75.6 Y109.924 E.02343
G1 X100.076 Y134.4 E1.25214
G1 X99.429 Y134.4 E.02343
G1 X75.6 Y110.571 E1.21901
G1 X75.6 Y111.219 E.02343
G1 X98.781 Y134.4 E1.18588
G1 X98.133 Y134.4 E.02343
G1 X75.6 Y111.867 E1.15275
G1 X75.6 Y112.514 E.02343
G1 X97.486 Y134.4 E1.11962
G1 X96.838 Y134.4 E.02343
G1 X75.6 Y113.162 E1.08649
G1 X75.6 Y113.81 E.02343
G1 X96.19 Y134.4 E1.05336
G1 X95.543 Y134.4 E.02343
G1 X75.6 Y114.457 E1.02023
G1 X75.6 Y115.105 E.02343
G1 X94.895 Y134.4 E.9871
G1 X94.248 Y134.4 E.02343
M73 P12 R15
M73 P12 R15
G1 X75.6 Y115.752 E.95397
G1 X75.6 Y116.4 E.02343
G1 X93.6 Y134.4 E.92084
G1 X92.952 Y134.4 E.02343
G1 X75.6 Y117.048 E.88771
G1 X75.6 Y117.695 E.02343
G1 X92.305 Y134.4 E.85458
G1 X91.657 Y134.4 E.02343
G1 X75.6 Y118.343 E.82144
G1 X75.6 Y118.991 E.02343
G1 X91.009 Y134.4 E.78831
G1 X90.362 Y134.4 E.02343
G1 X75.6 Y119.638 E.75518
G1 X75.6 Y120.286 E.02343
G1 X89.714 Y134.4 E.72205
G1 X89.067 Y134.4 E.02343
M73 P13 R15
M73 P13 R15
G1 X75.6 Y120.933 E.68892
G1 X75.6 Y121.581 E.02343
G1 X88.419 Y134.4 E.65579
G1 X87.771 Y134.4 E.02343
G1 X75.6 Y122.229 E.62266
G1 X75.6 Y122.876 E.02343
G1 X87.124 Y134.4 E.58953
G1 X86.476 Y134.4 E.02343
G1 X75.6 Y123.524 E.5564
G1 X75.6 Y124.171 E.02343
G1 X85.829 Y134.4 E.52327
G1 X85.181 Y134.4 E.02343
G1 X75.6 Y124.819 E.49014
G1 X75.6 Y125.467 E.02343
G1 X84.533 Y134.4 E.45701
G1 X83.886 Y134.4 E.02343
G1 X75.6 Y126.114 E.42388
G1 X75.6 Y126.762 E.02343
G1 X83.238 Y134.4 E.39075
G1 X82.59 Y134.4 E.02343
G1 X75.6 Y127.41 E.35762
G1 X75.6 Y128.057 E.02343
G1 X81.943 Y134.4 E.32449
G1 X81.295 Y134.4 E.02343
G1 X75.6 Y128.705 E.29136
G1 X75.6 Y129.352 E.02343
G1 X80.648 Y134.4 E.25822
G1 X80 Y134.4 E.02343
G1 X75.6 Y130 E.22509
G1 X75.6 Y130.648 E.02343
G1 X79.352 Y134.4 E.19196
G1 X78.705 Y134.4 E.02343
G1 X75.6 Y131.295 E.15883
G1 X75.6 Y131.943 E.02343
G1 X78.057 Y134.4 E.1257
G1 X77.409 Y134.4 E.02343
G1 X75.6 Y132.591 E.09257
G1 X75.6 Y133.238 E.02343
G1 X76.762 Y134.4 E.05944
G1 X76.114 Y134.4 E.02343
G1 X75.394 Y133.68 E.03683
; stop printing object WifiRadio2_BoxBottom.stl id:0 copy 0
;TIME_ELAPSED:148.745163

M106 S255
;LAYER_CHANGE
;Z:0.4
;HEIGHT:0.2
;BEFORE_LAYER_CHANGE
;0.4
G92 E0

G1 E-1.2 F2400
;WIPE_START
G1 F9000
G1 X76.114 Y134.4
G1 X76.762 Y134.4
G1 X76.526 Y134.164
;WIPE_END
;_SET_FAN_SPEED_CHANGING_LAYER
M204 P2500
; printing object WifiRadio2_BoxBottom.stl id:0 copy 0
M204 T2500
G1 X80.341 Y134.211 Z.4
G1 X144.548 Y134.998 Z.4
G1 E1.2 F1800
M204 P2000
;TYPE:Inner wall
;WIDTH:0.449999
G1 F5400
G1 X75.002 Y134.998 E2.23634
G1 X75.002 Y85.002 E1.60768
G1 X144.998 Y85.002 E2.25081
G1 X144.998 Y134.998 E1.60768
G1 X144.588 Y134.998 E.01318
G1 X145.39 Y135.39 F9000
M204 P1000
;TYPE:Outer wall
;WIDTH:0.419999
G1 F3600
G1 X74.61 Y135.39 E2.10829
G1 X74.61 Y84.61 E1.51256
G1 X145.39 Y84.61 E2.10829
M73 P14 R15
M73 P14 R15
G1 X145.39 Y135.35 E1.51137
G1 E-1.2 F2400
;WIPE_START
G1 F9000
G1 X143.39 Y135.351
;WIPE_END
G1 Z.6
G1 X144.135 Y134.898
G1 Z.6
G1 Z.4
G1 E1.2 F1800
M204 P2500
;TYPE:Internal solid infill
;WIDTH:0.419999
G1 F10800
G1 X144.728 Y134.305 E.02496
G1 X144.728 Y133.772 E.01588
G1 X143.772 Y134.728 E.04028
G1 X143.239 Y134.728 E.01588
G1 X144.728 Y133.239 E.06274
G1 X144.728 Y132.705 E.01588
G1 X142.705 Y134.728 E.08521
G1 X142.172 Y134.728 E.01588
G1 X144.728 Y132.172 E.10767
G1 X144.728 Y131.639 E.01588
G1 X141.639 Y134.728 E.13013
G1 X141.105 Y134.728 E.01588
G1 X144.728 Y131.105 E.1526
G1 X144.728 Y130.572 E.01588
G1 X140.572 Y134.728 E.17506
G1 X140.039 Y134.728 E.01588
G1 X144.728 Y130.039 E.19752
G1 X144.728 Y129.506 E.01588
G1 X139.506 Y134.728 E.21999
G1 X138.972 Y134.728 E.01588
G1 X144.728 Y128.972 E.24245
G1 X144.728 Y128.439 E.01588
G1 X138.439 Y134.728 E.26492
G1 X137.906 Y134.728 E.01588
G1 X144.728 Y127.906 E.28738
G1 X144.728 Y127.373 E.01588
G1 X137.373 Y134.728 E.30984
G1 X136.839 Y134.728 E.01588
G1 X144.728 Y126.839 E.33231
G1 X144.728 Y126.306 E.01588
G1 X136.306 Y134.728 E.35477
G1 X135.773 Y134.728 E.01588
G1 X144.728 Y125.773 E.37723
G1 X144.728 Y125.239 E.01588
G1 X135.239 Y134.728 E.3997
G1 X134.706 Y134.728 E.01588
G1 X144.728 Y124.706 E.42216
G1 X144.728 Y124.173 E.01588
G1 X134.173 Y134.728 E.44463
G1 X133.64 Y134.728 E.01588
G1 X144.728 Y123.64 E.46709
G1 X144.728 Y123.106 E.01588
G1 X133.106 Y134.728 E.48955
G1 X132.573 Y134.728 E.01588
G1 X144.728 Y122.573 E.51202
G1 X144.728 Y122.04 E.01588
G1 X132.04 Y134.728 E.53448
G1 X131.507 Y134.728 E.01588
G1 X144.728 Y121.507 E.55694
G1 X144.728 Y120.973 E.01588
G1 X130.973 Y134.728 E.57941
G1 X130.44 Y134.728 E.01588
G1 X144.728 Y120.44 E.60187
G1 X144.728 Y119.907 E.01588
G1 X129.907 Y134.728 E.62434
G1 X129.374 Y134.728 E.01588
G1 X144.728 Y119.374 E.6468
G1 X144.728 Y118.84 E.01588
G1 X128.84 Y134.728 E.66926
G1 X128.307 Y134.728 E.01588
G1 X144.728 Y118.307 E.69173
G1 X144.728 Y117.774 E.01588
G1 X127.774 Y134.728 E.71419
G1 X127.24 Y134.728 E.01588
G1 X144.728 Y117.24 E.73665
G1 X144.728 Y116.707 E.01588
G1 X126.707 Y134.728 E.75912
G1 X126.174 Y134.728 E.01588
G1 X144.728 Y116.174 E.78158
G1 X144.728 Y115.641 E.01588
G1 X125.641 Y134.728 E.80405
G1 X125.107 Y134.728 E.01588
G1 X144.728 Y115.107 E.82651
G1 X144.728 Y114.574 E.01588
G1 X124.574 Y134.728 E.84897
G1 X124.041 Y134.728 E.01588
G1 X144.728 Y114.041 E.87144
G1 X144.728 Y113.508 E.01588
G1 X123.508 Y134.728 E.8939
G1 X122.974 Y134.728 E.01588
G1 X144.728 Y112.974 E.91636
G1 X144.728 Y112.441 E.01588
G1 X122.441 Y134.728 E.93883
G1 X121.908 Y134.728 E.01588
G1 X144.728 Y111.908 E.96129
G1 X144.728 Y111.374 E.01588
G1 X121.374 Y134.728 E.98376
G1 X120.841 Y134.728 E.01588
G1 X144.728 Y110.841 E1.00622
G1 X144.728 Y110.308 E.01588
G1 X120.308 Y134.728 E1.02868
M73 P15 R15
M73 P15 R15
G1 X119.775 Y134.728 E.01588
G1 X144.728 Y109.775 E1.05115
G1 X144.728 Y109.241 E.01588
